src/svg/delete.svg

<svg xmlns="http://www.w3.org/2000/svg" width="1000" height="1000" viewBox="0 0 1000 1000"><path fill-rule="evenodd" clip-rule="evenodd" fill="#020202" d="M861.388 355.429h-43.343v433.687c0 47.975-38.854 86.771-86.743 86.771h-462.658c-47.89 0-86.701-38.797-86.701-86.771v-433.687h-43.413c-23.902 0-43.344-19.427-43.344-43.344 0-23.973 19.441-43.428 43.344-43.428h164.365c-3.205-9.064-5.28-18.692-5.28-28.886v-28.887c0-47.89 38.797-86.771 86.687-86.771h231.315c47.974 0 86.771 38.882 86.771 86.771v28.887c0 10.193-2.089 19.821-5.308 28.886h164.309c23.974 0 43.429 19.455 43.429 43.428-.002 23.917-19.457 43.344-43.43 43.344zm-592.744 404.8c0 16.011 12.946 28.886 28.971 28.886h404.772c15.926 0 28.915-12.875 28.915-28.886v-404.8h-462.658v404.8zm346.972-520.458c0-15.926-12.961-28.887-28.887-28.887h-173.458c-16.01 0-28.971 12.961-28.971 28.887v28.886h231.315v-28.886h.001zm0 491.544c-15.954 0-28.887-12.961-28.887-28.887v-260.228c0-16.011 12.933-28.972 28.887-28.972 16.01 0 28.971 12.961 28.971 28.972v260.229c0 15.925-12.961 28.886-28.971 28.886zm-115.658 0c-15.939 0-28.899-12.961-28.899-28.887v-260.228c0-16.011 12.96-28.972 28.899-28.972 16.011 0 28.972 12.961 28.972 28.972v260.229c0 15.925-12.961 28.886-28.972 28.886zm-115.657 0c-15.939 0-28.9-12.961-28.9-28.887v-260.228c0-16.011 12.961-28.972 28.9-28.972 16.011 0 28.971 12.961 28.971 28.972v260.229c-.001 15.925-12.96 28.886-28.971 28.886z"/></svg>

<?xml version="1.0" encoding="utf-8"?>
<!-- Generator: Adobe Illustrator 16.0.0, SVG Export Plug-In . SVG Version: 6.00 Build 0)  -->
<!DOCTYPE svg PUBLIC "-//W3C//DTD SVG 1.1//EN" "http://www.w3.org/Graphics/SVG/1.1/DTD/svg11.dtd">
<svg version="1.1" id="Layer_1" xmlns="http://www.w3.org/2000/svg" xmlns:xlink="http://www.w3.org/1999/xlink" x="0px" y="0px"
	 width="1000px" height="1000px" viewBox="0 0 1000 1000" enable-background="new 0 0 1000 1000" xml:space="preserve">
<path fill-rule="evenodd" clip-rule="evenodd" fill="#020202" d="M861.388,355.429h-43.343v433.687
	c0,47.975-38.854,86.771-86.743,86.771H268.644c-47.89,0-86.701-38.797-86.701-86.771V355.429h-43.413
	c-23.902,0-43.344-19.427-43.344-43.344c0-23.973,19.441-43.428,43.344-43.428h164.365c-3.205-9.064-5.28-18.692-5.28-28.886
	v-28.887c0-47.89,38.797-86.771,86.687-86.771h231.315c47.974,0,86.771,38.882,86.771,86.771v28.887
	c0,10.193-2.089,19.821-5.308,28.886h164.309c23.974,0,43.429,19.455,43.429,43.428
	C904.816,336.002,885.361,355.429,861.388,355.429L861.388,355.429z M268.644,760.229c0,16.011,12.946,28.886,28.971,28.886h404.772
	c15.926,0,28.915-12.875,28.915-28.886V355.429H268.644V760.229L268.644,760.229z M615.616,239.771
	c0-15.926-12.961-28.887-28.887-28.887H413.271c-16.01,0-28.971,12.961-28.971,28.887v28.886h231.315V239.771L615.616,239.771z
	 M615.616,731.315c-15.954,0-28.887-12.961-28.887-28.887V442.2c0-16.011,12.933-28.972,28.887-28.972
	c16.01,0,28.971,12.961,28.971,28.972v260.229C644.587,718.354,631.626,731.315,615.616,731.315L615.616,731.315z M499.958,731.315
	c-15.939,0-28.899-12.961-28.899-28.887V442.2c0-16.011,12.96-28.972,28.899-28.972c16.011,0,28.972,12.961,28.972,28.972v260.229
	C528.93,718.354,515.969,731.315,499.958,731.315L499.958,731.315z M384.301,731.315c-15.939,0-28.9-12.961-28.9-28.887V442.2
	c0-16.011,12.961-28.972,28.9-28.972c16.011,0,28.971,12.961,28.971,28.972v260.229
	C413.271,718.354,400.312,731.315,384.301,731.315L384.301,731.315z"/>
</svg>
